!!!!SEGMENT: pl-kk--kk-i-67--006_anonim--missa-dona-nobis.krn
!!!cenid: 17xx:2272
!!!COM: Anonim
!!!COM-rismid: pe30004985
!!!CDT:
!!!CNT:
!!!OPR: Missa
!!!OTL: Dona nobis
!!!OMV: 006
!!!PDT:
!!!AGN: Sacred; Mass
!!!SMS-siglum: PL-Kk
!!!SMS-shelfmark: Kk.I.67
!!!SMS-shelfwork: 001-006 M
!!!SMS-variant:
!!!SMS-altvar:
!!!NIFC-rismid: 1001154623
!!!URL-scan: http://repozytorium.nifc.pl/skany/pl-kk-nut--i-67
!!!ONB-nifc: UWAGA: części Mszy: 1. Kyrie, 2. Et in terra, 3. Credo, 4. Sanctus, 5. Agnus Dei, 6. Dona nobis
!!!AIN: 1 alto 1 empty 1 tenor 1 vox
!!!key:
**kern	**text	**dynam	**kern	**text	**dynam	**kern	**text	**dynam	**kern	**text	**dynam
*part4	*part4	*part4	*part3	*part3	*part3	*part2	*part2	*part2	*part1	*part1	*part1
*staff4	*staff4	*	*staff3	*staff3	*	*staff2	*staff2	*	*staff1	*staff1	*
*Iempty	*	*	*Itenor	*	*	*Ialto	*	*	*Ivox	*	*
*I"Baſsô	*	*	*I"Tenore	*	*	*I"Altô	*	*	*I"Cantô	*	*
*I'B	*	*	*I'T	*	*	*I'A	*	*	*I'S	*	*
*clefF4	*	*	*clefC4	*	*	*clefC3	*	*	*clefC1	*	*
*k[]	*	*	*k[]	*	*	*k[]	*	*	*k[]	*	*
*C:	*	*	*C:	*	*	*C:	*	*	*C:	*	*
*M2/2	*	*	*M2/2	*	*	*M2/2	*	*	*M2/2	*	*
*met(c|)	*	*	*met(c|)	*	*	*met(c|)	*	*	*met(c|)	*	*
*2\right	*	*	*2\right	*	*	*2\right	*	*	*2\right	*	*
=1	=1	=1	=1	=1	=1	=1	=1	=1	=1	=1	=1
!LO:TX:a:t=andte	!	!	!LO:TX:a:t=andte	!	!	!	!	!	!LO:TX:a:t=and&colon;	!	!
4C/	Do-	.	4G/	Do-	.	4e\	Do-	.	4cc\	Do-	.
4C/	-na	.	4G/	-na	.	4d\	-na	.	4b\	-na	.
4E\	no-	.	4G/	no-	.	4e\	no-	.	4cc\	no-	.
4F\	-bis	.	4G/	-bis	.	4f\	-bis	.	4dd\	-bis	.
=2	=2	=2	=2	=2	=2	=2	=2	=2	=2	=2	=2
2G\	pa-	.	2G/	pa-	.	2e\	pa-	.	2cc\	pa-	.
2G\	-cem	.	2G/	-cem	.	2d\	-cem	.	2b\	-cem	.
=3	=3	=3	=3	=3	=3	=3	=3	=3	=3	=3	=3
4G\	do-	.	4B\	do-	.	4f\	do-	.	4dd\	do-	.
4G\	-na	.	4c\	-na	.	4e\	-na	.	4cc\	-na	.
4B\	no-	.	4B\	no-	.	4f\	no-	.	4dd\	no-	.
4G\	-bis	.	4G/	-bis	.	4g\	-bis	.	4ee\	-bis	.
=4	=4	=4	=4	=4	=4	=4	=4	=4	=4	=4	=4
4c\	pa-	.	2G/	pa-	.	2f\	pa-	.	2dd\	pa-	.
8G\L	.	.	.	.	.	.	.	.	.	.	.
8E\J	.	.	.	.	.	.	.	.	.	.	.
2C/	-cem	.	2G/	-cem	.	2e\	-cem	.	2cc\	-cem	.
=5	=5	=5	=5	=5	=5	=5	=5	=5	=5	=5	=5
2c\	Do-	.	2G/	do-	.	2e\	do-	.	2cc\	do-	.
2A\	-na	.	2A/	-na	.	2f#X\	-na	.	2cc\	-na	.
=6	=6	=6	=6	=6	=6	=6	=6	=6	=6	=6	=6
2G\	no-	.	2.d\	no-	.	2g\	no-	.	2b\	no-	.
4F#X\	.	.	.	.	.	4a\	-bis	.	4cc\	-bis	.
4G\	-bis	.	4d\	-bis	.	4g\	.	.	4b\	.	.
=7	=7	=7	=7	=7	=7	=7	=7	=7	=7	=7	=7
!LO:LB:g=original	!	!	!	!	!	!	!	!	!LO:LB:g=original	!	!
1D	pa-	.	1d	pa-	.	1f#X	pa-	.	1a	pa-	.
=8	=8	=8	=8	=8	=8	=8	=8	=8	=8	=8	=8
!	!	!	!LO:LB:g=original	!	!	!LO:LB:g=original	!	!	!	!	!
2G\	-cem	.	2d\	-cem	.	2g\	-cem	.	2b\	-cem	.
2r	.	.	2r	.	.	2r	.	.	2r	.	.
=9	=9	=9	=9	=9	=9	=9	=9	=9	=9	=9	=9
4G\	Do-	.	4d\	Do-	.	2.g\	Do-	.	4b\	do-	.
4A\	.	.	4c\	.	.	.	.	.	4cc\	.	.
4B\	.	.	4B\	.	.	.	.	.	4dd\	.	.
4G\	-na	.	4d\	-na	.	4g\	-na	.	4b\	-na	.
=10	=10	=10	=10	=10	=10	=10	=10	=10	=10	=10	=10
4c\	no-	.	2c\	no-	.	2.g\	no-	.	2ee\	no-	.
4G\	.	.	.	.	.	.	.	.	.	.	.
4E\	.	.	2G/	-bis	.	.	.	.	4cc\	.	.
4D\	-bis	.	.	.	.	4fn\	-bis	.	4b\	-bis	.
=11	=11	=11	=11	=11	=11	=11	=11	=11	=11	=11	=11
4C\	pa-	.	2.G/	pa-	.	4e\	pa-	.	4cc\	pa-	.
4D\	.	.	.	.	.	4f\	.	.	4b\	.	.
4E\	.	.	.	.	.	4e\	.	.	4cc\	.	.
4F\	.	.	4A/	.	.	4d\	.	.	4dd\	.	.
=12	=12	=12	=12	=12	=12	=12	=12	=12	=12	=12	=12
.	.	.	.	.	.	.	.	.	8qqcc/	.	.
2G\	-cem	.	2G/	-cem	.	2d\	-cem	.	2b\	-cem	.
4r	.	.	4r	.	.	4r	.	.	4r	.	.
!	!	!LO:DY:a	!	!	!LO:DY:a:t=p&colon;	!	!	!LO:DY:a:t=p&colon;	!	!	!LO:DY:a:t=p&colon;
4G\	da	p	4G/	da	p	4d\	da	p	4b\	da	p
=13	=13	=13	=13	=13	=13	=13	=13	=13	=13	=13	=13
2F#X\	no-	.	1A	pa-	.	2e-X\	no-	.	2cc\	no-	.
2F#\	-bis	.	.	.	.	2e-\	-bis	.	2cc\	-bis	.
=14	=14	=14	=14	=14	=14	=14	=14	=14	=14	=14	=14
!	!	!	!	!	!	!	!	!	!LO:LB:g=original	!	!
4G\	pa-	.	2G/	-cem	.	4d\	pa-	.	4b\	pa-	.
4G\	-cem	.	.	.	.	4d\	-cem	.	4b\	-cem	.
!	!	!	!LO:TX:b:t=V&colon;S&colon;	!	!	!	!	!	!	!	!
2r	.	.	2r	.	.	2r	.	.	2r	.	.
=15	=15	=15	=15	=15	=15	=15	=15	=15	=15	=15	=15
!LO:LB:g=original	!	!	!LO:PB:g=original	!	!	!LO:LB:g=original	!	!	!	!	!
4d\	do-	.	4B\	Do-	.	2g\	Do-	.	2ff\	do-	.
4c\	.	.	4c\	.	.	.	.	.	.	.	.
4B\	.	.	4d\	.	.	2g\	-na	.	2dd\	-na	.
4G\	-na	.	4B\	-na	.	.	.	.	.	.	.
=16	=16	=16	=16	=16	=16	=16	=16	=16	=16	=16	=16
4c\	no-	.	4c\	no-	.	4g\	no-	.	4ee\	no-	.
4G\	.	.	4B\	.	.	4f\	.	.	4dd\	.	.
4E\	.	.	2G/	-bis	.	2e\	-bis	.	2cc\	-bis	.
4C/	-bis	.	.	.	.	.	.	.	.	.	.
=17	=17	=17	=17	=17	=17	=17	=17	=17	=17	=17	=17
2BB/	do-	.	2G/	Do-	.	2d\	do-	.	2ff\	do-	.
2C/	-na	.	2G/	-na	.	2e\	-na	.	2ee\	-na	.
=18	=18	=18	=18	=18	=18	=18	=18	=18	=18	=18	=18
2F\	no-	.	2A/	no-	.	2f\	no-	.	2dd\	no-	.
4E\	.	.	4G/	.	.	4g\	.	.	4cc\	.	.
4F\	-bis	.	4A/	-bis	.	4f\	-bis	.	4dd\	-bis	.
=19	=19	=19	=19	=19	=19	=19	=19	=19	=19	=19	=19
2G\	pa-	.	1G	pa-	.	2e\	pa-	.	2cc\	pa-	.
2GG/	.	.	.	.	.	2d\	.	.	2b\	.	.
=20	=20	=20	=20	=20	=20	=20	=20	=20	=20	=20	=20
2C/	-cem	.	2G/	-cem	.	2e\	-cem	.	2cc\	-cem	.
2r	.	.	2r	.	.	2r	.	.	2r	.	.
=21	=21	=21	=21	=21	=21	=21	=21	=21	=21	=21	=21
!	!	!LO:DY:a	!	!	!	!	!	!LO:DY:a:t=p&colon;	!LO:LB:g=original	!	!LO:DY:a
4d\	do-	p	4B\	Do-	.	2g\	Do-	p	2ff\	do-	p
4c\	.	.	4c\	.	.	.	.	.	.	.	.
4B\	-na	.	4d\	.	.	2g\	-na	.	2dd\	-na	.
4G\	.	.	4B\	-na	.	.	.	.	.	.	.
=22	=22	=22	=22	=22	=22	=22	=22	=22	=22	=22	=22
4c\	no-	.	4c\	no-	.	4g\	no-	.	4ee\	no-	.
4G\	.	.	4B\	.	.	4f\	.	.	4dd\	.	.
4E\	.	.	2G/	-bis	.	2e\	-bis	.	2cc\	-bis	.
4C\	-bis	.	.	.	.	.	.	.	.	.	.
=23	=23	=23	=23	=23	=23	=23	=23	=23	=23	=23	=23
!LO:LB:g=original	!	!LO:DY:a	!LO:LB:g=original	!	!	!LO:LB:g=original	!	!	!	!	!LO:DY:a
2BB/	do-	f	2G/	Do-	.	2d\	do-	.	2ff\	do-	f
2C/	-na	.	2G/	-na	.	2e\	-na	.	2ee\	-na	.
=24	=24	=24	=24	=24	=24	=24	=24	=24	=24	=24	=24
2F\	no-	.	2A/	no-	.	2f\	no-	.	2dd\	no-	.
4E\	.	.	4G/	.	.	4g\	.	.	4cc\	.	.
4F\	-bis	.	4A/	-bis	.	4f\	-bis	.	4dd\	-bis	.
=25	=25	=25	=25	=25	=25	=25	=25	=25	=25	=25	=25
2G\	pa-	.	1G	pa-	.	2e\	pa-	.	2cc\	pa-	.
2GG/	.	.	.	.	.	2d\	.	.	2b\	.	.
=26	=26	=26	=26	=26	=26	=26	=26	=26	=26	=26	=26
2C/	-cem	.	2G/	-cem	.	2e\	-cem	.	2cc\	-cem	.
2r	.	.	2r	.	.	2r	.	.	2r	.	.
=27	=27	=27	=27	=27	=27	=27	=27	=27	=27	=27	=27
4F\	do-	.	1c	Do-	.	1a	Do-	.	1ff	Do-	.
4G\	.	.	.	.	.	.	.	.	.	.	.
4A\	.	.	.	.	.	.	.	.	.	.	.
4B\	.	.	.	.	.	.	.	.	.	.	.
=28	=28	=28	=28	=28	=28	=28	=28	=28	=28	=28	=28
4c\	.	.	1c	-na	.	1g	-na	.	1ee	-na	.
4G\	.	.	.	.	.	.	.	.	.	.	.
4E\	.	.	.	.	.	.	.	.	.	.	.
4C\	-na	.	.	.	.	.	.	.	.	.	.
=29	=29	=29	=29	=29	=29	=29	=29	=29	=29	=29	=29
!	!	!	!	!	!	!	!	!	!LO:LB:g=original	!	!
4BB/	no-	.	1B	no-	.	1f	no-	.	1dd	no-	.
4GG/	.	.	.	.	.	.	.	.	.	.	.
4AA/	.	.	.	.	.	.	.	.	.	.	.
4BB/	.	.	.	.	.	.	.	.	.	.	.
=30	=30	=30	=30	=30	=30	=30	=30	=30	=30	=30	=30
4C/	.	.	2.G/	.	.	4e\	.	.	4cc\	.	.
4D/	.	.	.	.	.	4d\	.	.	4b\	.	.
!LO:LB:g=original	!	!	!	!	!	!	!	!	!	!	!
4E\	.	.	.	.	.	4e\	.	.	4cc\	.	.
4F\	-bis	.	4G/	-bis	.	4f\	-bis	.	4dd\	-bis	.
=31	=31	=31	=31	=31	=31	=31	=31	=31	=31	=31	=31
2G\	pa-	.	1G	pa-	.	2e\	pa-	.	2cc\	pa-	.
2GG/	.	.	.	.	.	2d\	.	.	2b\	.	.
=32	=32	=32	=32	=32	=32	=32	=32	=32	=32	=32	=32
!	!	!	!	!	!	!LO:LB:g=original	!	!	!	!	!
2C/	-cem	.	2G/	-cem	.	2e\	-cem	.	2cc\	-cem	.
2G\	pa-	.	2G/	pa-	.	2f\	pa-	.	2dd\	pa-	.
=33	=33	=33	=33	=33	=33	=33	=33	=33	=33	=33	=33
!	!	!	!LO:LB:g=original	!	!	!	!	!	!	!	!
2c\	-cem	.	2c\	-cem	.	2g\	-cem	.	2ee\	-cem	.
!	!	!	!LO:TX:t=P:problem=skreślony 1 takt	!	!	!	!	!	!	!	!
2G\	pa-	.	2Bn\	pa-	.	2f\	pa-	.	2dd\	pa-	.
=34	=34	=34	=34	=34	=34	=34	=34	=34	=34	=34	=34
1C	-cem.	.	1G	-cem.	.	2e\	-cem.	.	2cc\	-cem.	.
.	.	.	.	.	.	2r	.	.	2r	.	.
==	==	==	==	==	==	==	==	==	==	==	==
*-	*-	*-	*-	*-	*-	*-	*-	*-	*-	*-	*-
!!!system-decoration: [(s1,s2,s3,s4)]
!!!ENC: Kamil Watkowski
!!!END: 2021-08-06
